X:1
T: Lord How's Jig
N:
C:
S:
A:
O:
R:
M:6/8
K:A
I:speed 150
%W: A1
% voice 1 (1 lines, 37 notes)
K:A
M:6/8
L:1/16
E2 F2 E2 F4 F2 E2 F2 E2 A4 A2 B4 c2 d4 c2 B2 c2 A2 G4 F2 |E2 F2 E2 F4 F2 E2 F2 E2 A4 A2 B4 c2 d4 c2 B2 A2 G2 A6 |
%W: A2
% voice 1 (1 lines, 37 notes)
E2 F2 E2 F4 F2 E2 F2 E2 A4 A2 B4 c2 d4 c2 B2 c2 A2 G4 F2 |E2 F2 E2 F4 F2 E2 F2 E2 A4 A2 B4 c2 d4 c2 B2 A2 G2 A6 |
%W: B1
% voice 1 (1 lines, 40 notes)
e2 f2 e2 c4 A2 B4 c2 d4 d2 d2 e2 d2 B4 G2 A4 B2 c4 c2 |c2 d2 c2 B2 c2 B2 A2 B2 A2 G2 F2 E2 B2 c2 d2 c2 B2 A2 E2 A2 G2 A6 |
%W: B2
% voice 1 (1 lines, 40 notes)
e2 f2 e2 c4 A2 B4 c2 d4 d2 d2 e2 d2 B4 G2 A4 B2 c4 c2 |c2 d2 c2 B2 c2 B2 A2 B2 A2 G2 F2 E2 B2 c2 d2 c2 B2 A2 E2 A2 G2 A6 ||
